X: 1
T: Vos vet zayn  [Gm]
T: What will be
S: http://www.youtube.com/watch?v=64B9de-BNA0
S: http://www.youtube.com/watch?v=snGC3hZO9rE
M: 3/4
L: 1/8
K: Gm
DD |\
"Gm"B4 GG | "D7"A4 ^FF | "Cm"GG2G FE | "D"D4 zD |\
"D7"D^F F2 [FE][FD] | "Gm"[^FD]G3 [GF][GE] | "Cm"^F3 C DE | "D"D4 :|
|: z2 |\
"D7"^FF F4 | "Gm"GG G4 | "D7"^F2 G2 AB | "Gm"AG G4 |\
"D7"^FF F4 | "Cm"GG G3 G |1 "D"^F3 G "Cm"AB | "D"A4 :|2 "D"^F2 C2 "Cm"DE | "D"D4 |]
